X:1
T:Young Alan (7)
M:6/8
L:1/8
K:C
 C| DDD DEG| A2 A D2 D| GGG E2 D| C3- C2 C/2C/2| D2 D DEG| A2 A GAc|\
 A2 cE-D C| D3- D2||
